X:0064
M:2/4
L:1/8
Q:1/4=84
K:G
d   |g>agf|e3 d     |eaag| f3        (e/f/)|gfed |(e/d/)(c/B/) Ag|f2 Te2|d3
d   |g>agf|e3 d     |edgB| A3         G    |
     BGBG |ADD(A/B/)|cAcA| B/c/d/B/  Gd    |edef | gf/e/       dc|B2 TA2|G3:|

